X: 22861
T: Lark In The Morning, The
R: jig
M: 6/8
K: Dmajor
|:AFD D2A|DEF Adc|BGG dBB|BAG BdB
AFD D2A|DEF A2B|def gfe|fdc d2B:|
|:ABd fdd|add fdB|ABd fdd|edB BAB
ABd fdd|add fde|fgf ede|fdc d2B:|

